X: 2
T: Crabs In The Skillet
R: jig
M: 6/8
L: 1/8
K: Gmin
G2 F|:DGG ABc|c2B ~c3|Add cBA|dcB AGF|
DGG ABc|c2B ~c3|cAc fed|1cAF G2 F:|2cAF GB/c/d||
|:g2 g dgg|f/g/ag fed|cde fed|cde fcA|
G2 g g b/a/g| fag fed|cde fed|1cAF GB/c/d:|2cAF DCA,||
|:G,B,D GBd|~c3 dcA|~B3 Adc|AGF DCA,|
G,B,D GBd|~c3 dcA|~BcB Adc|1AGF G2 D:|AGF G3||

